images/tiktok.svg

<svg fill="none" height="34" viewBox="0 0 34 34" width="34" xmlns="http://www.w3.org/2000/svg"><path d="m24.1861 0h-5.73v23.1594c0 2.7595-2.2038 5.0261-4.9464 5.0261-2.7425 0-4.94638-2.2666-4.94638-5.0261 0-2.7101 2.15488-4.9276 4.79948-5.0261v-5.8144c-5.82794.0985-10.52946 4.8782-10.52946 10.8405 0 6.0117 4.79947 10.8406 10.72536 10.8406 5.9258 0 10.7253-4.8782 10.7253-10.8406v-11.8754c2.1549 1.5769 4.7995 2.5131 7.591 2.5624v-5.81451c-4.3097-.14783-7.6889-3.69566-7.6889-8.03189z" fill="#002922"/></svg>

<svg width="34" height="34" viewBox="0 0 34 34" fill="none" xmlns="http://www.w3.org/2000/svg">
<path d="M24.1861 0H18.4561V23.1594C18.4561 25.9189 16.2523 28.1855 13.5097 28.1855C10.7672 28.1855 8.56332 25.9189 8.56332 23.1594C8.56332 20.4493 10.7182 18.2318 13.3628 18.1333V12.3189C7.53486 12.4174 2.83334 17.1971 2.83334 23.1594C2.83334 29.1711 7.63281 34 13.5587 34C19.4845 34 24.284 29.1218 24.284 23.1594V11.284C26.4389 12.8609 29.0835 13.7971 31.875 13.8464V8.03189C27.5653 7.88406 24.1861 4.33623 24.1861 0Z" fill="#002922"/>
</svg>
